src/images/advantages/icon-advantages-1.svg

<svg width="61" height="63" viewBox="0 0 61 63" fill="none" xmlns="http://www.w3.org/2000/svg">
<g clip-path="url(#clip0)">
<path d="M13.8716 51.1984C18.1728 51.1984 43.0563 51.1984 47.3525 51.1984C47.5183 47.3803 47.2448 41.0454 44.8973 38.0302L44.8124 37.9219L39.6826 35.3463C39.794 34.9706 39.8488 34.6264 39.8708 34.3735C39.8962 34.0698 39.8543 33.7846 39.7459 33.5262C38.8996 31.5011 37.1088 30.4356 36.1238 29.9815C36.424 29.3767 36.6175 28.7274 36.711 28.064C37.2686 27.9069 37.7171 27.465 37.8641 26.8755L38.4629 24.443C38.569 24.0139 38.5024 23.5688 38.2743 23.1903C38.1762 23.0272 38.0493 22.8898 37.9069 22.7723C39.5951 18.9377 36.7676 15.3219 36.6136 15.1316C33.5514 11.8208 29.683 12.4399 29.4785 12.4765C23.8958 13.6455 21.7414 17.924 22.9577 22.9419C22.5974 23.341 22.4461 23.8971 22.5797 24.4424L23.1814 26.8776C23.3273 27.4628 23.7722 27.9031 24.3259 28.0621C24.4967 29.2769 25.0109 30.3758 25.7662 31.2613V33.1897C17.7551 37.2923 22.8311 34.6749 16.4111 37.9228C16.3984 37.9834 13.3986 41.1715 13.8445 50.6211L13.8716 51.1984ZM46.1891 49.9863H40.6788V47.6716L44.3233 39.3285C46.149 42.3588 46.2168 48.1448 46.1891 49.9863ZM38.6686 34.2705C38.456 36.7132 37.1164 35.9748 36.2894 37.8568C35.639 37.1416 35.4434 36.284 35.6182 35.366C35.934 33.6804 34.9052 33.1797 35.1595 31.4086L35.198 31.368V31.3624C35.2198 31.338 35.4227 31.0963 35.4815 31.02C37.6616 31.9704 38.7111 33.7379 38.6686 34.2705ZM26.9732 32.3505C27.9853 33.0525 29.207 33.4673 30.521 33.4673C31.7585 33.4673 32.9339 33.1072 33.9416 32.4441C34.0813 33.8365 34.6255 34.1153 34.4324 35.1399C34.3962 35.3301 34.3766 35.5175 34.365 35.7019L30.6123 39.9313L25.8152 34.523L26.9732 33.9183V32.3505H26.9732ZM25.4645 27.1744V24.8295C25.4645 23.966 25.4645 20.5401 25.4645 20.7093C26.0485 19.6291 26.8447 18.8458 27.8342 18.3762C30.4843 19.8756 33.5347 22.1134 35.5805 24.3655C35.5785 27.2336 35.5886 27.2414 35.5695 27.477L35.5682 27.492C35.4086 30.0964 33.2671 32.2552 30.521 32.2552C27.8513 32.2552 25.6348 30.1591 25.4745 27.4662C25.4662 27.3697 25.4645 27.273 25.4645 27.1744ZM24.7172 35.1079L30.6123 41.7536L34.5702 37.293C34.6606 37.5534 34.7875 37.7995 34.9326 38.0371L30.6124 43.4398L24.17 35.3826L24.7172 35.1079ZM36.7874 26.199V24.3267C36.8405 24.2659 37.2904 23.75 37.2374 23.8108C37.2622 24.7588 37.3646 23.6399 36.7874 26.199ZM29.7018 13.6677C29.9413 13.6826 33.1582 13.1783 35.7007 15.9232C35.8008 16.0489 37.8704 18.7154 37.039 21.6325C36.7544 20.3345 36.2583 18.6711 35.4744 17.8772L34.6175 18.7307C35.3915 19.5147 35.9 21.9021 36.0936 23.1398C32.5431 19.4245 27.963 17.073 27.9002 17.0333C27.6705 17.1761 25.7323 17.5446 24.3247 20.2805L24.2575 20.4113V22.4206C24.1971 22.4213 24.0196 22.4231 24.0801 22.4225C23.1857 18.1046 24.8985 14.6745 29.7018 13.6677ZM23.9529 23.6694L24.2575 24.9035V26.2005L23.7513 24.1515C23.677 23.8461 23.9032 23.7303 23.9529 23.6694ZM23.0655 35.9371L30.6123 45.3758L35.7184 38.9895C36.2739 39.4866 36.5409 39.5571 37.7186 40.1627L37.3214 38.8153C37.2206 38.4732 37.6196 37.9246 37.8606 37.6725C38.3986 37.3806 38.847 36.9644 39.1825 36.4506L43.3485 38.5425L39.4719 47.4177V49.9863H21.7522V47.4174L17.8738 38.5434L23.0655 35.9371ZM16.9002 39.3311L20.5453 47.6719V49.9863H15.035C15.0073 48.1454 15.0756 42.3623 16.9002 39.3311Z" fill="#FF6B09"/>
</g>
<path d="M59.8235 9.73529V1.5H1V61.5H59.8235V53.2647" stroke="#FF6B09" stroke-width="2"/>
<defs>
<clipPath id="clip0">
<rect width="33.1915" height="40" fill="white" transform="translate(14 11.5)"/>
</clipPath>
</defs>
</svg>

<svg width="61" height="63" fill="none" xmlns="http://www.w3.org/2000/svg"><g clip-path="url(#clip0)"><path d="M13.872 51.198h33.48c.166-3.818-.107-10.153-2.455-13.168l-.085-.108-5.13-2.576c.112-.375.167-.72.189-.972a1.785 1.785 0 00-.125-.848c-.846-2.025-2.637-3.09-3.622-3.545.3-.604.493-1.254.587-1.917a1.646 1.646 0 001.153-1.189l.599-2.432c.106-.43.04-.874-.189-1.253a1.64 1.64 0 00-.367-.418c1.688-3.834-1.14-7.45-1.293-7.64-3.063-3.311-6.931-2.692-7.135-2.655-5.583 1.168-7.738 5.447-6.521 10.465-.36.399-.512.955-.378 1.5l.601 2.436c.146.585.591 1.025 1.145 1.184a6.265 6.265 0 001.44 3.2v1.928c-8.01 4.102-2.935 1.485-9.355 4.733-.013.06-3.012 3.248-2.567 12.698l.028.577zm32.317-1.212h-5.51v-2.314l3.644-8.343c1.826 3.03 1.894 8.816 1.866 10.657zm-7.52-15.715c-.213 2.442-1.553 1.704-2.38 3.586-.65-.715-.846-1.573-.67-2.491.315-1.686-.714-2.186-.46-3.957l.039-.041v-.006c.022-.024.225-.266.283-.342 2.18.95 3.23 2.718 3.188 3.25zm-11.696-1.92a6.207 6.207 0 006.969.093c.14 1.392.684 1.671.49 2.696-.036.19-.055.377-.067.562l-3.753 4.23-4.797-5.409 1.158-.605V32.35zm-1.508-5.177V24.83v-4.12c.584-1.08 1.38-1.863 2.37-2.333 2.65 1.5 5.7 3.737 7.745 5.99-.002 2.868.009 2.875-.01 3.111l-.002.015c-.16 2.604-2.3 4.763-5.047 4.763-2.67 0-4.886-2.096-5.047-4.789a3.398 3.398 0 01-.01-.292zm-.748 7.934l5.895 6.646 3.958-4.461c.09.26.218.507.363.744l-4.32 5.403-6.443-8.057.547-.275zm12.07-8.909v-1.872l.45-.516c.025.948.128-.171-.45 2.388zm-7.085-12.531c.24.015 3.456-.49 5.999 2.255.1.126 2.17 2.792 1.338 5.71-.285-1.299-.78-2.962-1.565-3.756l-.856.854c.773.784 1.282 3.171 1.476 4.409-3.55-3.716-8.131-6.067-8.194-6.107-.23.143-2.168.512-3.575 3.247l-.067.131v2.01l-.178.002c-.894-4.318.819-7.748 5.622-8.755zm-5.75 10.001l.305 1.235V26.2l-.506-2.05c-.074-.305.152-.42.202-.482zm-.887 12.268l7.547 9.439 5.106-6.386c.556.497.823.567 2 1.173l-.397-1.348c-.1-.342.299-.89.54-1.142a3.652 3.652 0 001.322-1.222l4.166 2.091-3.877 8.876v2.568h-17.72v-2.569l-3.878-8.874 5.192-2.606zM16.9 39.331l3.645 8.34v2.315h-5.51c-.028-1.84.04-7.624 1.865-10.655z" fill="#FF6B09"/></g><path d="M59.824 9.735V1.5H1v60h58.824v-8.235" stroke="#FF6B09" stroke-width="2"/><defs><clipPath id="clip0"><path fill="#fff" transform="translate(14 11.5)" d="M0 0h33.191v40H0z"/></clipPath></defs></svg>
